icons/svg/av-timer.svg

﻿<?xml version="1.0" encoding="utf-8"?>
<!DOCTYPE svg PUBLIC "-//W3C//DTD SVG 1.1//EN" "http://www.w3.org/Graphics/SVG/1.1/DTD/svg11.dtd">
<svg xmlns="http://www.w3.org/2000/svg" xmlns:xlink="http://www.w3.org/1999/xlink" version="1.1" baseProfile="full" width="24" height="24" viewBox="0 0 24.00 24.00" enable-background="new 0 0 24.00 24.00" xml:space="preserve">
	<path fill="#000000" fill-opacity="1" stroke-width="0.2" stroke-linejoin="round" d="M 11.0013,17.0025C 11.0013,17.5487 11.45,17.9975 12.0025,17.9975C 12.5487,17.9975 12.9975,17.5487 12.9975,17.0025C 12.9975,16.45 12.5487,16.0012 12.0025,16.0012C 11.45,16.0012 11.0013,16.45 11.0013,17.0025 Z M 11.0013,2.9978L 11.0013,7.0025L 12.9975,7.0025L 12.9975,5.0775C 16.3912,5.57125 18.9988,8.47125 18.9988,12.0025C 18.9988,15.8688 15.8687,18.9988 12.0025,18.9988C 8.13,18.9988 5,15.8688 5,12.0025C 5,10.3225 5.59125,8.77875 6.5825,7.5775L 12.0025,12.9975L 13.4087,11.5912L 6.61125,4.79L 6.61125,4.81C 4.41875,6.45 2.9975,9.0475 2.9975,12.0025C 2.9975,16.9675 7.02125,21.0012 12.0025,21.0012C 16.9675,21.0012 21.0013,16.9675 21.0013,12.0025C 21.0013,7.03125 16.9675,2.9978 12.0025,2.9978M 17.9975,12.0025C 17.9975,11.45 17.5487,11.0012 17.0025,11.0012C 16.45,11.0012 16.0012,11.45 16.0012,12.0025C 16.0012,12.5487 16.45,12.9975 17.0025,12.9975C 17.5487,12.9975 17.9975,12.5487 17.9975,12.0025 Z M 6.00125,12.0025C 6.00125,12.5487 6.45,12.9975 7.0025,12.9975C 7.54875,12.9975 7.9975,12.5487 7.9975,12.0025C 7.9975,11.45 7.54875,11.0012 7.0025,11.0012C 6.45,11.0012 6.00125,11.45 6.00125,12.0025 Z "/>
</svg>

<svg xmlns="http://www.w3.org/2000/svg" width="24" height="24" viewBox="0 0 24 24"><path fill="#000000" fill-opacity="1" stroke-width="0.2" stroke-linejoin="round" d="M11 17c0 .55.45 1 1 1s1-.45 1-1-.45-1-1-1-1 .45-1 1zm0-14v4h2V5.08c3.39.49 6 3.39 6 6.92 0 3.87-3.13 7-7 7s-7-3.13-7-7c0-1.68.59-3.22 1.58-4.42L12 13l1.41-1.41-6.8-6.8v.02C4.42 6.45 3 9.05 3 12c0 4.97 4.02 9 9 9 4.97 0 9-4.03 9-9s-4.03-9-9-9h-1zm7 9c0-.55-.45-1-1-1s-1 .45-1 1 .45 1 1 1 1-.45 1-1zM6 12c0 .55.45 1 1 1s1-.45 1-1-.45-1-1-1-1 .45-1 1z"/></svg>
